X:1
T:Three Merry Men
M:4/4
L:1/4
K:A
 c B/2c/2 A E| A G/2A/2 C D| E A/2G/2A/2-B/2 c| B4| B B/2A/2 G E| e e/2d/2 c A|\
 B BB/2-c/2 d| c4|

